packages/sources/assets/src/assets/post-efinance.svg

<svg width="58" height="40" viewBox="0 0 58 40" fill="none" xmlns="http://www.w3.org/2000/svg">
<rect x="0.5" y="0.5" width="57" height="39" rx="3.5" fill="#FFCC00" stroke="#F3F3F3"/>
<path d="M57 35.5638V4.23399C57.1532 2.35502 55.5842 0.801287 53.7614 0.999948H41.0096C42.9325 6.96271 44.2482 19.4946 36.8602 28.6914C32.2048 34.5531 24.8599 38.0904 15.043 38.9999H17.7727C26.2739 37.6861 32.812 34.25 37.1638 28.8936C43.7422 20.8085 43.5398 10.0957 42.1229 3.52654C43.8434 9.7925 44.653 20.5053 38.5807 28.9946C35.3422 33.5425 30.5855 36.8776 24.3108 38.9999H26.0313C31.5976 36.8776 35.9494 33.6436 38.9855 29.3989C42.0217 25.1542 43.641 19.7978 43.8434 13.8351C43.9446 11.6117 43.7422 9.59037 43.5398 7.87229C44.7542 13.9361 44.653 22.1223 40.2 29.1968C37.5687 33.3404 33.9253 36.5744 28.9663 38.9999H30.6867C35.0385 36.6755 38.3783 33.5425 40.8072 29.601C44.4506 23.7393 45.2602 17.0691 44.7542 11.4095C45.4626 16.867 45.0578 23.234 41.9205 29.1968C39.7952 33.1382 36.6599 36.4734 32.6118 38.9999H34.4108C37.953 36.4734 40.8072 33.2393 42.8313 29.601C44.9566 25.6595 45.9687 21.4148 46.0699 17.4734C46.0699 21.3138 45.3614 25.2553 43.5398 29.0957C41.7181 32.9361 39.0758 36.2712 35.5336 38.9999H37.4013C40.5387 36.3723 43.0337 33.1382 44.653 29.601C45.5638 27.6808 46.1711 25.7606 46.6771 23.6382C46.3735 25.3563 45.8675 27.1755 45.2602 28.8936C43.7422 32.6329 41.4253 36.1702 38.1867 38.9999H40.4458C43.1783 36.1702 45.3614 32.9361 46.7783 29.4999C45.5638 32.9361 43.5398 36.1702 40.8072 38.9999H53.6424C56.0184 39.1473 57.1591 37.2535 57 35.5638Z" fill="#FFE666"/>
<path d="M46.4453 24.5012L46.9654 22.0244L4.52057 22.0244L4 24.5012L46.4453 24.5012Z" fill="white"/>
<path d="M51.5576 18.6487C51.5576 18.6487 52.1268 16.0246 52.1347 16H48.5179C48.5179 16.0166 47.7701 19.4823 47.7701 19.4988C47.778 19.4988 48.6969 19.4988 48.6969 19.4988C48.7047 19.4988 49.2657 16.8828 49.2657 16.8828H51.0211C51.0211 16.8828 50.4684 19.5068 50.4523 19.5234C50.4684 19.5234 53.1262 19.5234 53.1262 19.5234L52.7768 21.1417C52.7768 21.1417 50.1273 21.1417 50.1187 21.1417C50.1187 21.1581 49.5824 23.6103 49.5824 23.6103C49.5824 23.6103 47.5911 23.6103 47.575 23.6103C47.575 23.6184 47.3961 24.4931 47.3882 24.5012H50.3463C50.3463 24.4931 50.875 22.0244 50.875 22.0244C50.875 22.0244 53.5164 22.0244 53.5328 22.0244C53.5328 22.0162 54.2319 18.6648 54.2319 18.6487H51.5576Z" fill="#ED1C24"/>
<path fill-rule="evenodd" clip-rule="evenodd" d="M11.6646 22.8502C12.9408 22.8502 13.8022 21.9182 13.9973 20.7003C14.2006 19.4822 13.5261 18.5502 12.2498 18.5502C10.9738 18.5502 10.1122 19.4822 9.91714 20.7003C9.714 21.9182 10.3886 22.8502 11.6646 22.8502ZM46.0451 21.7058L45.8336 22.6786C45.5247 22.7764 45.151 22.8502 44.6795 22.8502C43.5173 22.8502 42.7695 22.1879 42.7695 21.0601C42.7695 19.7441 43.6472 18.5502 45.0941 18.5502C46.2076 18.5502 46.7278 19.2861 46.7278 20.1854C46.7278 20.4796 46.6708 20.7981 46.5735 21.117H43.8913C43.9157 21.7466 44.3706 21.9262 44.8911 21.9262C45.3378 21.9262 45.6875 21.8282 46.0451 21.7058ZM45.655 20.12C45.655 19.6867 45.3947 19.4253 45.0128 19.4253C44.5249 19.4253 44.1594 19.7849 43.9887 20.3323H45.6389L45.6417 20.3062V20.3061C45.6486 20.2429 45.655 20.1846 45.655 20.12ZM41.4204 21.8528C40.892 21.8528 40.5344 21.624 40.5344 20.9619C40.5344 20.1854 41.022 19.5395 41.7944 19.5395C42.0382 19.5395 42.3145 19.613 42.5909 19.7195L42.786 18.7876C42.4688 18.6732 42.0947 18.5914 41.721 18.5914C40.4449 18.5914 39.3557 19.5477 39.3557 21.0193C39.3557 22.2289 40.0956 22.8009 41.1601 22.8009C41.5177 22.8009 41.8184 22.7356 42.0382 22.6459L42.2494 21.6892C42.0056 21.7792 41.7372 21.8528 41.4204 21.8528ZM36.2511 20.6593L35.8041 22.7275H34.6417L35.5115 18.6732H36.5923L36.4867 19.1553C36.877 18.7383 37.332 18.5502 37.8036 18.5502C38.657 18.5502 39.2014 19.1717 38.9494 20.3569L38.4375 22.7275H37.2751L37.7628 20.4142C37.8687 19.9484 37.8036 19.5395 37.259 19.5395C36.8365 19.5395 36.4298 19.8256 36.2511 20.6593ZM31.6265 21.5586C31.6265 21.1501 31.9841 20.9208 32.5772 20.9208C32.6913 20.9208 32.9429 20.9293 33.1708 20.9619L33.1218 21.1908C32.9834 21.6728 32.5937 22.0002 32.1306 22.0002C31.7971 22.0002 31.6265 21.8366 31.6265 21.5586ZM31.4884 18.7548C31.6671 18.6976 32.2117 18.5748 32.7482 18.5748C34.0892 18.5748 34.4709 19.1879 34.4709 19.883C34.4709 20.0546 34.4548 20.2342 34.4143 20.4062L33.9102 22.7275H32.878L32.9675 22.3025C32.6913 22.6294 32.2686 22.8256 31.7727 22.8256C31.0738 22.8256 30.5376 22.4086 30.5376 21.714C30.5376 20.6511 31.4639 20.2018 32.6178 20.2018C32.7482 20.2018 33.0244 20.2262 33.3169 20.2588L33.3334 20.1769C33.3495 20.1118 33.3495 20.0462 33.3495 19.9892C33.3495 19.6703 33.13 19.4822 32.5206 19.4822C32.0652 19.4822 31.553 19.6215 31.2933 19.6949L31.4884 18.7548ZM27.1156 22.7275L27.5625 20.6593C27.7415 19.8256 28.1475 19.5395 28.5707 19.5395C29.1153 19.5395 29.1801 19.9484 29.0747 20.4142L28.5867 22.7275H29.749L30.2607 20.3569C30.5128 19.1717 29.9685 18.5502 29.1153 18.5502C28.6432 18.5502 28.1881 18.7383 27.7981 19.1553L27.9037 18.6732H26.8228L25.9531 22.7275H27.1156ZM25.6363 18.2071C25.2787 18.2071 25.0103 17.9209 25.035 17.5532C25.0592 17.1854 25.3437 16.8992 25.7418 16.8992C26.0995 16.8992 26.3677 17.1854 26.3431 17.5532C26.319 17.9209 26.0345 18.2071 25.6363 18.2071ZM24.8721 18.6732L24.0025 22.7275H25.1568L26.0265 18.6732H24.8721ZM22.0434 20.6103L21.5883 22.7275H20.402L21.5563 17.2342L24.6041 17.2342L24.3766 18.2725L22.5316 18.2725L22.2631 19.5722H24.0109L23.7994 20.6103H22.0434ZM20.4424 19.5641L20.6295 18.6732H19.3862L19.6297 17.5452L18.4186 17.8147L17.6627 21.2804C17.4517 22.2617 17.9878 22.8009 18.963 22.8009C19.1667 22.8009 19.5077 22.7602 19.7518 22.6786L19.9469 21.7874C19.7518 21.8366 19.5077 21.8855 19.2967 21.8855C18.963 21.8855 18.7274 21.7712 18.809 21.3623L19.1911 19.5641H20.4424ZM15.3059 21.9182C15.6391 21.9182 16.0372 21.8612 16.0372 21.534C16.0372 21.3065 15.7913 21.204 15.4979 21.0817C15.0639 20.9008 14.5258 20.6765 14.5258 19.9403C14.5258 19.0983 15.2085 18.5914 16.338 18.5914C16.712 18.5914 17.1266 18.6486 17.476 18.7468L17.2809 19.6703L17.2778 19.6694C17.1043 19.6197 16.5957 19.4741 16.2322 19.4741C15.8505 19.4741 15.6067 19.5641 15.6067 19.8177C15.6067 20.0433 15.8488 20.1433 16.1392 20.2633C16.5745 20.4431 17.1185 20.6678 17.1185 21.4278C17.1185 22.4086 16.2728 22.8009 15.2327 22.8009C14.7939 22.8009 14.3306 22.7275 13.9647 22.6375L14.1602 21.722C14.4119 21.804 14.8831 21.9182 15.3059 21.9182ZM11.1118 20.7003C10.9414 21.5423 11.307 21.9102 11.7706 21.9102C12.2336 21.9102 12.6317 21.534 12.8025 20.7003C12.9815 19.8664 12.6157 19.4907 12.1523 19.4907C11.689 19.4907 11.2824 19.8584 11.1118 20.7003ZM6.86923 21.0516H7.38143C9.01513 21.0516 9.92556 20.2426 9.92556 18.8937C9.92556 17.8883 9.21788 17.2342 8.00699 17.2342H6.49564L5.34135 22.7275H6.51171L6.86923 21.0516ZM7.45442 18.2398L7.07241 20.0462H7.56041C8.32414 20.0462 8.73844 19.6377 8.73844 18.9756C8.73844 18.4606 8.47863 18.2398 7.94213 18.2398H7.45442Z" fill="black"/>
<path fill-rule="evenodd" clip-rule="evenodd" d="M52.7038 32.8065L52.4922 33.7794C52.1833 33.8771 51.8096 33.9509 51.3382 33.9509C50.1759 33.9509 49.4281 33.2886 49.4281 32.1608C49.4281 30.8448 50.3058 29.6509 51.7527 29.6509C52.8663 29.6509 53.3864 30.3868 53.3864 31.2861C53.3864 31.5803 53.3295 31.8988 53.2321 32.2177H50.55C50.5743 32.8473 51.0293 33.0269 51.5497 33.0269C51.9965 33.0269 52.3462 32.9289 52.7038 32.8065ZM52.3136 31.2207C52.3136 30.7874 52.0534 30.526 51.6714 30.526C51.1835 30.526 50.8181 30.8856 50.6473 31.4331H52.2975L52.3003 31.4068C52.3072 31.3436 52.3136 31.2852 52.3136 31.2207ZM48.079 32.9535C47.5507 32.9535 47.1931 32.7247 47.1931 32.0626C47.1931 31.2861 47.6806 30.6402 48.4531 30.6402C48.6968 30.6402 48.9732 30.7137 49.2495 30.8202L49.4446 29.8883C49.1275 29.774 48.7534 29.6921 48.3797 29.6921C47.1036 29.6921 46.0143 30.6484 46.0143 32.12C46.0143 33.3296 46.7542 33.9016 47.8188 33.9016C48.1764 33.9016 48.4771 33.8363 48.6968 33.7466L48.908 32.7899C48.6643 32.8799 48.3958 32.9535 48.079 32.9535ZM42.9098 31.76L42.4628 33.8282H41.3004L42.1701 29.774H43.251L43.1454 30.256C43.5357 29.839 43.9906 29.6509 44.4623 29.6509C45.3156 29.6509 45.86 30.2724 45.608 31.4576L45.0962 33.8282H43.9338L44.4215 31.5149C44.5273 31.0491 44.4623 30.6402 43.9176 30.6402C43.4951 30.6402 43.0885 30.9264 42.9098 31.76ZM38.2852 32.6593C38.2852 32.2508 38.6427 32.0215 39.2358 32.0215C39.35 32.0215 39.6015 32.03 39.8294 32.0626L39.7805 32.2915C39.6421 32.7735 39.2523 33.1009 38.7893 33.1009C38.4558 33.1009 38.2852 32.9373 38.2852 32.6593ZM38.147 29.8555C38.3257 29.7983 38.8703 29.6755 39.4069 29.6755C40.7478 29.6755 41.1295 30.2886 41.1295 30.9837C41.1295 31.1553 41.1135 31.3349 41.0729 31.5069L40.5688 33.8282H39.5366L39.6261 33.4032C39.35 33.7301 38.9273 33.9263 38.4313 33.9263C37.7324 33.9263 37.1962 33.5094 37.1962 32.8147C37.1962 31.7518 38.1226 31.3026 39.2764 31.3026C39.4069 31.3026 39.683 31.3269 39.9756 31.3595L39.992 31.2776C40.0081 31.2126 40.0081 31.1469 40.0081 31.0899C40.0081 30.771 39.7886 30.5829 39.1792 30.5829C38.7238 30.5829 38.2116 30.7222 37.952 30.7956L38.147 29.8555ZM33.7742 33.8282L34.2212 31.76C34.4001 30.9264 34.8062 30.6402 35.2293 30.6402C35.7739 30.6402 35.8388 31.0491 35.7334 31.5149L35.2454 33.8282H36.4076L36.9194 31.4576C37.1715 30.2724 36.6271 29.6509 35.7739 29.6509C35.3019 29.6509 34.8467 29.839 34.4568 30.256L34.5623 29.774H33.4815L32.6118 33.8282H33.7742ZM32.2949 29.3078C31.9374 29.3078 31.6689 29.0216 31.6936 28.6539C31.7178 28.2861 32.0024 27.9999 32.4005 27.9999C32.7582 27.9999 33.0263 28.2861 33.0017 28.6539C32.9777 29.0216 32.6931 29.3078 32.2949 29.3078ZM31.5308 29.774L30.6612 33.8282H31.8155L32.6852 29.774H31.5308ZM28.7021 31.711L28.2469 33.8282H27.0607L28.2149 28.3349H31.2627L31.0352 29.3732H29.1902L28.9217 30.6729H30.6696L30.458 31.711H28.7021Z" fill="black"/>
<path d="M21.2 28.8H24.3L24.1 29.6H22.1L21.8 30.9H23.6L23.4 31.7H21.6L21.3 33.2H23.4L23.2 34H21.1H20L21.2 28.8Z" fill="black"/>
<path d="M24.6 31.6H26.6L26.4 32.4H24.4L24.6 31.6Z" fill="black"/>
</svg>

<svg width="58" height="40" fill="none" xmlns="http://www.w3.org/2000/svg"><rect x=".5" y=".5" width="57" height="39" rx="3.5" fill="#FC0" stroke="#F3F3F3"/><path d="M57 35.564V4.234C57.153 2.355 55.584.801 53.761 1H41.01c1.922 5.963 3.238 18.495-4.15 27.691-4.655 5.862-12 9.4-21.817 10.309h2.73c8.5-1.314 15.039-4.75 19.39-10.106 6.58-8.085 6.377-18.798 4.96-25.367 1.72 6.266 2.53 16.978-3.542 25.468-3.239 4.547-7.996 7.883-14.27 10.005h1.72c5.567-2.122 9.918-5.356 12.955-9.601 3.036-4.245 4.655-9.601 4.857-15.564.102-2.223-.1-4.245-.303-5.963 1.214 6.064 1.113 14.25-3.34 21.325-2.631 4.143-6.275 7.377-11.234 9.803h1.72c4.352-2.325 7.692-5.458 10.121-9.399 3.644-5.862 4.453-12.532 3.947-18.191.709 5.457.304 11.824-2.834 17.787-2.125 3.941-5.26 7.276-9.308 9.803h1.799a28.695 28.695 0 0 0 8.42-9.399 27.2 27.2 0 0 0 3.239-12.128c0 3.84-.709 7.782-2.53 11.623-1.822 3.84-4.464 7.175-8.006 9.904H37.4c3.138-2.628 5.633-5.862 7.252-9.399.91-1.92 1.518-3.84 2.024-5.963-.303 1.718-.81 3.537-1.417 5.256-1.518 3.739-3.835 7.276-7.073 10.106h2.259c2.732-2.83 4.915-6.064 6.332-9.5-1.214 3.436-3.238 6.67-5.97 9.5h12.834c2.376.147 3.517-1.746 3.358-3.436Z" fill="#FFE666"/><path d="m46.445 24.501.52-2.477H4.521L4 24.501h42.445" fill="#fff"/><path d="M51.558 18.649s.569-2.624.577-2.649h-3.617c0 .017-.748 3.482-.748 3.499h.927c.008 0 .569-2.616.569-2.616h1.755s-.553 2.624-.569 2.64h2.674l-.35 1.619H50.12c0 .016-.537 2.468-.537 2.468h-2.007c0 .008-.179.883-.187.891h2.958c0-.008.529-2.477.529-2.477h2.658c0-.008.699-3.36.699-3.375h-2.674" fill="#ED1C24"/><path fill-rule="evenodd" clip-rule="evenodd" d="M11.665 22.85c1.276 0 2.137-.932 2.332-2.15.204-1.218-.47-2.15-1.747-2.15-1.276 0-2.138.932-2.333 2.15-.203 1.218.472 2.15 1.748 2.15Zm34.38-1.144-.211.973a3.751 3.751 0 0 1-1.155.171c-1.162 0-1.91-.662-1.91-1.79 0-1.316.878-2.51 2.325-2.51 1.114 0 1.634.736 1.634 1.635 0 .295-.057.613-.154.932H43.89c.025.63.48.81 1 .81.447 0 .797-.099 1.154-.221Zm-.39-1.586c0-.433-.26-.695-.642-.695-.488 0-.854.36-1.024.907h1.65l.003-.026c.007-.063.013-.121.013-.186Zm-4.235 1.733c-.528 0-.886-.229-.886-.891 0-.777.488-1.422 1.26-1.422.244 0 .52.073.797.18l.195-.932a3.206 3.206 0 0 0-1.065-.197c-1.276 0-2.365.957-2.365 2.428 0 1.21.74 1.782 1.804 1.782.358 0 .658-.065.878-.155l.211-.957c-.243.09-.512.164-.829.164Zm-5.169-1.194-.447 2.069h-1.162l.87-4.055h1.08l-.105.482c.39-.417.845-.605 1.317-.605.853 0 1.397.622 1.145 1.807l-.511 2.37h-1.163l.488-2.313c.106-.466.04-.875-.504-.875-.422 0-.83.287-1.008 1.12Zm-4.624.9c0-.409.357-.638.95-.638.114 0 .366.008.594.04l-.05.23c-.138.482-.527.81-.99.81-.334 0-.505-.164-.505-.442Zm-.139-2.804a4.87 4.87 0 0 1 1.26-.18c1.341 0 1.723.613 1.723 1.308 0 .172-.016.351-.057.523l-.504 2.322h-1.032l.09-.426c-.277.327-.7.524-1.195.524-.7 0-1.235-.417-1.235-1.112 0-1.063.926-1.512 2.08-1.512.13 0 .406.024.699.057l.016-.082c.017-.065.017-.13.017-.188 0-.319-.22-.507-.83-.507-.455 0-.967.14-1.227.213l.195-.94Zm-4.372 3.973.447-2.069c.178-.833.585-1.12 1.008-1.12.544 0 .61.41.504.875l-.488 2.313h1.162l.512-2.37c.252-1.185-.293-1.807-1.146-1.807-.472 0-.927.188-1.317.605l.106-.482h-1.081l-.87 4.055h1.163Zm-1.48-4.52a.595.595 0 0 1-.601-.655.688.688 0 0 1 .707-.654c.357 0 .626.286.601.654a.688.688 0 0 1-.707.654Zm-.764.465-.87 4.055h1.155l.87-4.055h-1.155Zm-2.829 1.937-.455 2.117h-1.186l1.154-5.493h3.048l-.227 1.038h-1.845l-.269 1.3h1.748l-.212 1.038h-1.756Zm-1.6-1.046.186-.89h-1.243l.244-1.129-1.211.27-.756 3.465c-.211.982.325 1.52 1.3 1.52.204 0 .545-.04.789-.121l.195-.892c-.195.05-.44.099-.65.099-.334 0-.57-.115-.488-.524l.382-1.798h1.251Zm-5.137 2.354c.333 0 .731-.057.731-.384 0-.227-.246-.33-.54-.452-.433-.181-.971-.405-.971-1.142 0-.842.683-1.349 1.812-1.349.374 0 .789.058 1.138.156l-.195.923h-.003c-.174-.05-.682-.196-1.046-.196-.381 0-.625.09-.625.344 0 .225.242.325.532.445.436.18.98.405.98 1.165 0 .98-.846 1.373-1.886 1.373-.44 0-.902-.073-1.268-.163l.195-.916a4.09 4.09 0 0 0 1.146.196ZM11.112 20.7c-.17.842.195 1.21.659 1.21.463 0 .86-.376 1.031-1.21.18-.834-.186-1.21-.65-1.21-.463 0-.87.368-1.04 1.21Zm-4.243.352h.512c1.634 0 2.545-.81 2.545-2.158 0-1.006-.708-1.66-1.919-1.66H6.496L5.34 22.727h1.17l.358-1.675Zm.585-2.812-.382 1.806h.488c.764 0 1.178-.408 1.178-1.07 0-.515-.26-.736-.796-.736h-.488Zm45.25 14.566-.212.973a3.754 3.754 0 0 1-1.154.172c-1.162 0-1.91-.662-1.91-1.79 0-1.316.878-2.51 2.325-2.51 1.113 0 1.633.736 1.633 1.635 0 .294-.056.613-.154.932H50.55c.024.63.48.809 1 .809.447 0 .796-.098 1.154-.22Zm-.39-1.585c0-.434-.26-.695-.643-.695-.487 0-.853.36-1.024.907h1.65l.003-.026c.007-.063.014-.122.014-.186Zm-4.235 1.732c-.528 0-.886-.228-.886-.89 0-.777.488-1.423 1.26-1.423.244 0 .52.074.796.18l.196-.932a3.207 3.207 0 0 0-1.065-.196c-1.276 0-2.366.956-2.366 2.428 0 1.21.74 1.782 1.805 1.782.357 0 .658-.066.878-.155l.211-.957c-.244.09-.512.163-.829.163Zm-5.17-1.193-.446 2.068H41.3l.87-4.054h1.081l-.106.482c.39-.417.846-.605 1.317-.605.854 0 1.398.621 1.146 1.807l-.512 2.37h-1.162l.488-2.313c.105-.466.04-.875-.504-.875-.423 0-.83.286-1.008 1.12Zm-4.624.9c0-.41.358-.638.95-.638.115 0 .367.008.594.04l-.048.23c-.139.481-.529.809-.992.809-.333 0-.504-.164-.504-.442Zm-.138-2.804c.179-.058.723-.18 1.26-.18 1.34 0 1.723.613 1.723 1.308 0 .171-.017.35-.057.523l-.504 2.321h-1.032l.09-.425c-.277.327-.7.523-1.196.523-.699 0-1.235-.417-1.235-1.111 0-1.063.927-1.512 2.08-1.512.13 0 .407.024.7.056l.016-.081c.016-.065.016-.131.016-.188 0-.319-.22-.507-.829-.507-.455 0-.967.14-1.227.213l.195-.94Zm-4.373 3.972.447-2.068c.18-.834.585-1.12 1.008-1.12.545 0 .61.41.504.875l-.488 2.313h1.163l.511-2.37c.253-1.186-.292-1.807-1.145-1.807-.472 0-.927.188-1.317.605l.105-.482h-1.08l-.87 4.054h1.162Zm-1.48-4.52a.595.595 0 0 1-.6-.654A.688.688 0 0 1 32.4 28c.357 0 .625.286.6.654a.688.688 0 0 1-.706.654Zm-.763.466-.87 4.054h1.154l.87-4.054h-1.154Zm-2.829 1.937-.455 2.117H27.06l1.154-5.493h3.048l-.228 1.038H29.19l-.268 1.3h1.748l-.212 1.038h-1.756Z" fill="#000"/><path d="M21.2 28.8h3.1l-.2.8h-2l-.3 1.3h1.8l-.2.8h-1.8l-.3 1.5h2.1l-.2.8H20l1.2-5.2Zm3.4 2.8h2l-.2.8h-2l.2-.8Z" fill="#000"/></svg>
